public/icons/youtube.svg

<svg width="41" height="41" viewBox="0 0 41 41" fill="none" xmlns="http://www.w3.org/2000/svg">
<path d="M39.2533 16.5718C39.3377 14.129 38.8035 11.7044 37.7002 9.52325C36.9517 8.62827 35.9129 8.0243 34.7648 7.81658C30.016 7.38569 25.2476 7.20909 20.48 7.28752C15.7297 7.20553 10.9785 7.37644 6.24637 7.79952C5.31081 7.9697 4.44501 8.40853 3.75464 9.06245C2.21864 10.479 2.04797 12.9025 1.8773 14.9505C1.62969 18.6327 1.62969 22.3274 1.8773 26.0097C1.92668 27.1623 2.0983 28.3065 2.3893 29.423C2.59508 30.285 3.01142 31.0825 3.60103 31.7441C4.29611 32.4326 5.18206 32.8964 6.14397 33.0752C9.8234 33.5294 13.5308 33.7176 17.2373 33.6384C23.2106 33.7238 28.4501 33.6385 34.6453 33.1606C35.6308 32.9927 36.5417 32.5283 37.2565 31.8294C37.7343 31.3514 38.0912 30.7663 38.2976 30.1227C38.9079 28.2499 39.2077 26.2897 39.185 24.3201C39.2533 23.3643 39.2533 17.5958 39.2533 16.5718ZM16.6229 25.3441V14.7798L26.7264 20.0875C23.8933 21.6577 20.1557 23.4326 16.6229 25.3441Z" fill="#1E1E1E"/>
</svg>

<svg xmlns="http://www.w3.org/2000/svg" width="41" height="41" fill="none" viewBox="0 0 41 41"><path fill="#1e1e1e" d="M39.253 16.572A14.5 14.5 0 0 0 37.7 9.523a4.98 4.98 0 0 0-2.935-1.706c-4.749-.431-9.517-.608-14.285-.53A134 134 0 0 0 6.246 7.8a4.9 4.9 0 0 0-2.491 1.262c-1.536 1.417-1.707 3.84-1.878 5.889a82 82 0 0 0 0 11.059 16.3 16.3 0 0 0 .512 3.413c.206.862.622 1.66 1.212 2.321a4.9 4.9 0 0 0 2.543 1.331c3.68.454 7.387.643 11.093.563 5.974.086 11.213 0 17.408-.477a4.9 4.9 0 0 0 2.611-1.332 4.25 4.25 0 0 0 1.042-1.706c.61-1.873.91-3.833.887-5.803.068-.956.068-6.724.068-7.748m-22.63 8.772V14.78l10.103 5.307c-2.833 1.57-6.57 3.346-10.103 5.257"/></svg>
